X: 77
T: Preludium g-moll
C: Maria Szymanowska
%%abc-version 2.0
%%abcx-abcm2ps-target-version 5.9.1 (29 Sep 2008)
%%abc-creator hum2abc beta
%%abcx-conversion-date 2021/10/04 07:38:38
%%abc-edited-by Tomasz Grochalski
%%abcx-initial-encoding-date 15.06.2020 r.
%%humdrum-veritas 3778151165
%%humdrum-veritas-data 974740676
%%linebreak <none>
%%barnumbers 0
L: 1/8
M: 12/8
N: Derived from pl-kozmzk--mzk-m-31--004_szymanowska-maria--preludium-g-moll.krn
%%staves {1 2}
V: 1 clef=treble
V: 2 clef=bass
K: Bb
[V:1] [GB][Ac] [I:setbarnb 1]| 
[V:2] z2 | 
[V:1] [Bd] !accent![Bd][ce] !wedge![Bd] !accent![bd'][c'e'] !wedge![bd'] !accent![^FA][GB] [Ac] !accent![^fa][gb] | 
[V:2] G,,2z[G,2B,2D2]z[D,,2D,2]z[D,2A,2C2]z | 
[V:1] [ac'] !accent![^FA][GB] c !accent![ac'][bd'] !wedge![ac'] !accent![GB][Ac] [Bd] !accent![gb][ac'] & xx2A xx7 | 
[V:2] D,,2z[D,2A,2C2]zG,,2z[G,2B,2D2]z | 
[V:1] [bd'] !accent![GB][Ac] !wedge![Bd] !accent![gbd']g' e' Ac e !accent![ac']e' | 
[V:2] B,,,2z[B,,2D,2G,2]zC,,2z[C,2E,2A,2]z | 
[V:1] !wedge!d' !accent![dg]b d' !accent![Ac]^f !wedge!g [A,C]^F [B,G] [I:setbarnb 4]:|]  
[V:2] D,,2z[D,2A,2C2]z [G,B,] !accent!E,D, G,, :|]  
[V:1] [GB]d | 
[V:2] z2 | 
[V:1] g !accent![F=B]d g [g=bd']g'[c'2e'2]z [CE]G | 
[V:2] G,,2z [D,=B,] z[K:clef=treble] z !wedge![ce]!wedge![df][e2g2]z[K:clef=bass] | 
[V:1] F !accent![Fce]g !wedge!f !accent![fc'e']g'[d'2f'2]z z [B,D]F | 
[V:2] F,,2z[C,2A,2]z[K:clef=treble] z !wedge![Bd]!wedge![ce][d2f2]z | 
[V:1] [B,2D2E2]z z [gb]e'[a2c'2d'2]z z [gb]d' | 
[V:2] [K:clef=bass][G,,G,][K:clef=treble] [GB]de2z z [^FA]^c d =EG | 
[V:1] !wedge![fac']!wedge![eac']!wedge![egc']!wedge![e^fc']!wedge![dfc']!wedge![eac'] !wedge![dfb]!wedge![cf]!wedge![Bg]!wedge![Ge]!wedge![Bd]!wedge![^Fc] | 
[V:2] F^FG_A=AF GDECD[K:clef=bass]D, | 
[V:1] [GB] [Bd][ce][B2d2]z z [Ac][Bd][A2c2]z | 
[V:2] G,2z[K:clef=treble] z [bd'][c'e']!wedge![b2d'2]z z[K:clef=bass] [^F,A,][G,B,] | 
[V:1] [^FA][GB][A2c2]z z [GB][Ac][B2d2]z2 | 
[V:2] [A,2C2][K:clef=treble]z z [ac'][bd'][a2c'2]z[K:clef=bass] z [G,B,][A,C] | 
[V:1] z [GB]d!accent!g2z z [Gc]eg2z | 
[V:2] [B,2D2]z[K:clef=treble] z [=bd']g'[c'2e'2]z[K:clef=bass] z [C,E,]A, | 
[V:1] z [DG]B d [Ac]^f [Bg] [ac']^f' [bg'] [I:setbarnb 12]:|]  
[V:2] D,2zD,,2z G,, !accent!ED G, :|]  
[V:1] z2 | 
[V:2] D,B,, | 
[V:1] z [F=B]dg2z z [Gc]eg2z | 
[V:2] G,,2z[K:clef=treble] z [=bd']g'[c'2e'2]z[K:clef=bass] z !accent![E,G,]C, | 
[V:1] z [CE]^Fc2z z [DG]=Bd2z | 
[V:2] G,,2z[K:clef=treble] z [e^f]ag2z[K:clef=bass] z D,=B,, | 
[V:1] x2x2x2x [G,C]EG2z | 
[V:2] G,,2z[K:clef=treble] z [=Bd]g[c2e2]z[K:clef=bass] z E,C, & z [F,=B,]De'2z z xx4 | 
[V:1] z [CE]^F2<!accent!c2z FA!accent!e3 | 
[V:2] G,,2z z !accent!^F,E,^F,,2z z !accent!F,E, | 
[V:1] z [Ac]e2<!accent!a2z [e^f]a!accent!e'3 | 
[V:2] G,,2z z !accent!^F,E,^F,,2z z !accent!F,E, | 
[V:1] [bd']ag !trill!BAG ^fed !trill!cBA & x2x2x2c'2x4 | 
[V:2] [G,,6G,6][A,,6A,6] | 
[V:1] g2x2x8 & dBG !trill!_AGf [ce][Ff][Bd] [Ee][Ac][Dd] | 
[V:2] [B,,3B,3][=B,,2=B,2]>[C,2C2][A,,A,][B,,B,] [G,,G,][A,,A,][^F,,^F,] | 
[V:1] [GB][_A=B][Gc] [GB^c][GBd][GB=e][G2B2d2]z[A2=c2^f2]z | 
[V:2] [G,,G,][F,,F,][=E,,=E,] [_E,,_E,][D,,D,][^C,,^C,][D,,2D,2]z[D,2D2]z | 
[V:1] g x x^F2x!fermata!G4 & [Bd]!trill!AG E!trill!DC[B,4D4] |]  
[V:2] [G,,2G,2]z[D,,2D,2]z!fermata![G,,,4G,,4] |]  


